resources/svg/exchange-dollar-fill.svg

<svg fill="currentColor" viewBox="0 0 24 24" xmlns="http://www.w3.org/2000/svg"><path d="M5.37833 4.51353C7.14264 2.95131 9.46301 2.00293 12.0049 2.00293C17.5277 2.00293 22.0049 6.48008 22.0049 12.0029C22.0049 14.1279 21.3421 16.098 20.212 17.7179L17.5049 12.0029H20.0049C20.0049 7.58465 16.4232 4.00293 12.0049 4.00293C9.76058 4.00293 7.73213 4.92709 6.27932 6.41563L5.37833 4.51353ZM18.6314 19.4923C16.8671 21.0545 14.5468 22.0029 12.0049 22.0029C6.48204 22.0029 2.00488 17.5258 2.00488 12.0029C2.00488 9.87798 2.66767 7.90784 3.79778 6.28794L6.50488 12.0029H4.00488C4.00488 16.4212 7.5866 20.0029 12.0049 20.0029C14.2492 20.0029 16.2776 19.0788 17.7304 17.5902L18.6314 19.4923ZM8.50488 14.0029H14.0049C14.281 14.0029 14.5049 13.7791 14.5049 13.5029C14.5049 13.2268 14.281 13.0029 14.0049 13.0029H10.0049C8.62417 13.0029 7.50488 11.8836 7.50488 10.5029C7.50488 9.12222 8.62417 8.00293 10.0049 8.00293H11.0049V7.00293H13.0049V8.00293H15.5049V10.0029H10.0049C9.72874 10.0029 9.50488 10.2268 9.50488 10.5029C9.50488 10.7791 9.72874 11.0029 10.0049 11.0029H14.0049C15.3856 11.0029 16.5049 12.1222 16.5049 13.5029C16.5049 14.8836 15.3856 16.0029 14.0049 16.0029H13.0049V17.0029H11.0049V16.0029H8.50488V14.0029Z"/></svg>

<svg xmlns="http://www.w3.org/2000/svg" viewBox="0 0 24 24" fill="currentColor">
    <g>
        <path fill="none" d="M0 0h24v24H0z"/>
        <path d="M5.373 4.51A9.962 9.962 0 0 1 12 2c5.523 0 10 4.477 10 10a9.954 9.954 0 0 1-1.793 5.715L17.5 12H20A8 8 0 0 0 6.274 6.413l-.9-1.902zm13.254 14.98A9.962 9.962 0 0 1 12 22C6.477 22 2 17.523 2 12c0-2.125.663-4.095 1.793-5.715L6.5 12H4a8 8 0 0 0 13.726 5.587l.9 1.902zM8.5 14H14a.5.5 0 1 0 0-1h-4a2.5 2.5 0 1 1 0-5h1V7h2v1h2.5v2H10a.5.5 0 1 0 0 1h4a2.5 2.5 0 1 1 0 5h-1v1h-2v-1H8.5v-2z"/>
    </g>
</svg>
